img/svg/tnt-logo.svg

<svg enable-background="new 0 0 273.5 202" height="202" viewBox="0 0 273.5 202" width="273.5" xmlns="http://www.w3.org/2000/svg"><path d="m155.8 105.8-1.4-23.8v-33.2h32.8v104.5h-32.1l-37.3-56.9 1.3 23.8v33.1h-32.7v-104.5h32.1z"/><path d="m95.8 27.4h-30.8v125.8h-34.2v-125.8h-30.8v-27.4h95.8z"/><path d="m177.7 174.6h30.8v-125.8h34.3v125.8h30.8v27.4h-95.8v-27.4z"/><path d="m273.5 153.3h-8.3v-145h-148.1v-8.3h156.4z"/><path d="m0 48.7h8.3v145h148.1v8.3h-156.4z"/></svg>

<svg version="1.1" xmlns="http://www.w3.org/2000/svg" xmlns:xlink="http://www.w3.org/1999/xlink" x="0px" y="0px" width="273.5px" height="202px" viewBox="0 0 273.5 202" style="enable-background:new 0 0 273.5 202;"xml:space="preserve"><path class="svg-tnt-logo" d="M155.8,105.8L154.4,82V48.8h32.8v104.5h-32.1l-37.3-56.9l1.3,23.8v33.1H86.4V48.8h32.1L155.8,105.8z"/><path class="svg-tnt-logo" d="M95.8,27.4H65v125.8H30.8V27.4H0L0,0l95.8,0V27.4z"/><path class="svg-tnt-logo" d="M177.7,174.6h30.8V48.8h34.3v125.8h30.8V202h-95.8V174.6z"/><polygon class="svg-tnt-logo" points="273.5,153.3 265.2,153.3 265.2,8.3 117.1,8.3 117.1,0 273.5,0 "/><polygon class="svg-tnt-logo" points="0,48.7 8.3,48.7 8.3,193.7 156.4,193.7 156.4,202 0,202 "/></svg>
